client/public/assets/icons/action/new_custom79.svg

<?xml version="1.0"?><svg xmlns="http://www.w3.org/2000/svg" width="52" height="52" viewBox="0 0 52 52"><g fill="#fff"><path d="m17.8 19.3c-2.9 0-5.2 2.3-5.2 5.2s2.3 5.2 5.2 5.2 5.2-2.3 5.2-5.2-2.3-5.2-5.2-5.2z m30 16.3h-14.3v-5.9h1.5c0.8 0 1.5-0.7 1.5-1.5v-4.4c0-0.8-0.7-1.5-1.5-1.5h-1.7c-1.2-7.4-7.5-13.1-15.3-13.3-8.9-0.1-16.1 7-16 15.7 0.2 8.6 7.4 15.3 16.1 15.3h27.4v1.5c0 0.8 0.7 1.5 1.5 1.5h1.5c0.8 0 1.5-0.7 1.5-1.5v-3.7c0-1.2-1-2.2-2.2-2.2z m-30-1.5c-5.4 0-9.7-4.3-9.7-9.6s4.3-9.6 9.7-9.6 9.7 4.3 9.7 9.6-4.3 9.6-9.7 9.6z"></path></g></svg>

<?xml version="1.0" encoding="utf-8"?>
<!-- Generator: Adobe Illustrator 18.1.1, SVG Export Plug-In . SVG Version: 6.00 Build 0)  -->
<svg version="1.1" id="Layer_1" xmlns="http://www.w3.org/2000/svg" xmlns:xlink="http://www.w3.org/1999/xlink" x="0px" y="0px"
	 width="52px" height="52px" viewBox="0 0 52 52" enable-background="new 0 0 52 52" xml:space="preserve">
<g>
	<path fill="#FFFFFF" d="M17.8,19.3c-2.9,0-5.2,2.3-5.2,5.2s2.3,5.2,5.2,5.2s5.2-2.3,5.2-5.2S20.7,19.3,17.8,19.3z"/>
	<path fill="#FFFFFF" d="M47.8,35.6H33.5v-5.9H35c0.8,0,1.5-0.7,1.5-1.5v-4.4c0-0.8-0.7-1.5-1.5-1.5h-1.7C32.1,14.9,25.8,9.2,18,9
		C9.1,8.9,1.9,16,2,24.7C2.2,33.3,9.4,40,18.1,40H26h3h16.5v1.5c0,0.8,0.7,1.5,1.5,1.5h1.5c0.8,0,1.5-0.7,1.5-1.5v-3.7
		C50,36.6,49,35.6,47.8,35.6z M17.8,34.1c-5.4,0-9.7-4.3-9.7-9.6s4.3-9.6,9.7-9.6s9.7,4.3,9.7,9.6S23.2,34.1,17.8,34.1z"/>
</g>
</svg>
